X:75
T:Upstairs and to Bed. JBi.74
M:C|
Q:1/2=90
S:James Biggins MS, Leeds, 1779
R:.Reel
O:England
A:Yorkshire
N:Iâ€™ve removed a superfluous quaver â€˜Aâ€™ from the end of each strain.
Z:vmp.Chris Partington
K:D
â€œ_Key C in msâ€\
â€œ^crâ€A|defd ecac|BffB BffB|defd ecac|AeeA Aee:|!
|:f/g/|afge fdec|BffB BffB|afge fdec|AeeA Aee:|

